src/assets/filled/Notification1.svg

<?xml version="1.0" encoding="UTF-8"?>
<svg width="24" height="24" viewBox="0 0 24 24" xmlns="http://www.w3.org/2000/svg">
 <path d="m19 8c1.6569 0 3-1.3432 3-3s-1.3431-3-3-3-3 1.3432-3 3 1.3431 3 3 3z"/>
 <path d="m21 10.4v6.08c0 0.14-0.01 0.28-0.02 0.41-0.01 0.12-0.02 0.23-0.04 0.35-0.01 0.12-0.03 0.24-0.05 0.35-0.35 2.42-1.89 3.95-4.3 4.3-0.11 0.02-0.23 0.04-0.35 0.05-0.12 0.02-0.23 0.03-0.35 0.04-0.13 0.01-0.27 0.02-0.41 0.02h-7.96c-0.14 0-0.28-0.01-0.41-0.02-0.12-0.01-0.23-0.02-0.35-0.04-0.12-0.01-0.24-0.03-0.35-0.05-2.41-0.35-3.95-1.88-4.3-4.3-0.02-0.11-0.04-0.23-0.05-0.35-0.02-0.12-0.03-0.23-0.04-0.35-0.01-0.13-0.02-0.27-0.02-0.41v-7.96c0-0.14 0.01-0.28 0.02-0.41 0.01-0.12 0.02-0.23 0.04-0.35 0.01-0.12 0.03-0.24 0.05-0.35 0.35-2.42 1.89-3.95 4.3-4.3 0.11-0.02 0.23-0.04 0.35-0.05 0.12-0.02 0.23-0.03 0.35-0.04 0.13-0.01 0.27-0.02 0.41-0.02h6.08c0.64 0 1.1 0.58 0.98 1.2 0 0.02-0.01 0.04-0.01 0.06-0.02 0.1-0.03 0.2-0.05 0.31-0.04 0.42-0.02 0.87 0.07 1.33 0.03 0.12 0.05 0.22 0.09 0.33 0.08 0.33 0.21 0.64 0.38 0.93 0.06 0.12 0.14 0.24 0.21 0.35 0.33 0.48 0.74 0.89 1.22 1.22 0.11 0.07 0.23 0.15 0.35 0.21 0.29 0.17 0.6 0.3 0.93 0.38 0.11 0.04 0.21 0.06 0.33 0.09 0.46 0.09 0.91 0.11 1.33 0.07 0.11-0.02 0.21-0.03 0.31-0.05 0.02 0 0.04-0.01 0.06-0.01 0.62-0.12 1.2 0.34 1.2 0.98z"/>
</svg>

<svg width="24" height="24" viewBox="0 0 24 24"  xmlns="http://www.w3.org/2000/svg">
<path d="M19 8C20.6569 8 22 6.65685 22 5C22 3.34315 20.6569 2 19 2C17.3431 2 16 3.34315 16 5C16 6.65685 17.3431 8 19 8Z" />
<path d="M21 10.4V16.48C21 16.62 20.99 16.76 20.98 16.89C20.97 17.01 20.96 17.12 20.94 17.24C20.93 17.36 20.91 17.48 20.89 17.59C20.54 20.01 19 21.54 16.59 21.89C16.48 21.91 16.36 21.93 16.24 21.94C16.12 21.96 16.01 21.97 15.89 21.98C15.76 21.99 15.62 22 15.48 22H7.52C7.38 22 7.24 21.99 7.11 21.98C6.99 21.97 6.88 21.96 6.76 21.94C6.64 21.93 6.52 21.91 6.41 21.89C4 21.54 2.46 20.01 2.11 17.59C2.09 17.48 2.07 17.36 2.06 17.24C2.04 17.12 2.03 17.01 2.02 16.89C2.01 16.76 2 16.62 2 16.48V8.52C2 8.38 2.01 8.24 2.02 8.11C2.03 7.99 2.04 7.88 2.06 7.76C2.07 7.64 2.09 7.52 2.11 7.41C2.46 4.99 4 3.46 6.41 3.11C6.52 3.09 6.64 3.07 6.76 3.06C6.88 3.04 6.99 3.03 7.11 3.02C7.24 3.01 7.38 3 7.52 3H13.6C14.24 3 14.7 3.58 14.58 4.2C14.58 4.22 14.57 4.24 14.57 4.26C14.55 4.36 14.54 4.46 14.52 4.57C14.48 4.99 14.5 5.44 14.59 5.9C14.62 6.02 14.64 6.12 14.68 6.23C14.76 6.56 14.89 6.87 15.06 7.16C15.12 7.28 15.2 7.4 15.27 7.51C15.6 7.99 16.01 8.4 16.49 8.73C16.6 8.8 16.72 8.88 16.84 8.94C17.13 9.11 17.44 9.24 17.77 9.32C17.88 9.36 17.98 9.38 18.1 9.41C18.56 9.5 19.01 9.52 19.43 9.48C19.54 9.46 19.64 9.45 19.74 9.43C19.76 9.43 19.78 9.42 19.8 9.42C20.42 9.3 21 9.76 21 10.4Z" />
</svg>
